svg/pine_tree.svg

<svg xmlns="http://www.w3.org/2000/svg" viewBox="0 0 24 24"><path d="M10 21v-3H3l5-5H5l5-5H7l5-5 5 5h-3l5 5h-3l5 5h-7v3z"/></svg>

<?xml version="1.0" encoding="UTF-8"?><!DOCTYPE svg PUBLIC "-//W3C//DTD SVG 1.1//EN" "http://www.w3.org/Graphics/SVG/1.1/DTD/svg11.dtd"><svg xmlns="http://www.w3.org/2000/svg" xmlns:xlink="http://www.w3.org/1999/xlink" version="1.1" id="mdi-pine-tree" width="24" height="24" viewBox="0 0 24 24"><path d="M10,21V18H3L8,13H5L10,8H7L12,3L17,8H14L19,13H16L21,18H14V21H10Z" /></svg>
